X:1
T:Title
%%score { 1 | 2 }
L:1/8
M:4/4
K:C
V:1 treble nm="Grand Piano"
V:2 bass 
V:1
 z4 z2[Q:1/4=110] [EG]2 | [Ec] [Ec]3 [B,E]3 [B,D] | D C3- C2 C2 | A A3 F3 A | G6 [EG]2 | %5
 [FA] [FA]3 [GB]3 [GB] | [Gc] [Gc]3- [Gc]2 [Gc]2 | [^Fc]3 [FA] [FB]2 [Fc]2 | [Gd]6 [FG]2 | %9
 [Ec]3 [Ec] [B,E]3 [B,D] | D C3- C2 C2 | A3 A F3 A | G6 [EG]2 | c3 c d3 d | %14
 [Ge] [Ec]3- [Ec]2 [Gc]2 | [Fd] [Fd]3 c3 [DB] |[M:3/4] [Ec]6 |[M:1/4] [EG]2 |[M:4/4] d d3 c3 d | %19
 [Ee] [Ec]3- [Ec]3 [EG]/[EG]/ | [FA]3 [Ac] [GB]3 [FA] |[M:3/4] [EG]6 |[M:1/4] G2 | %23
[M:4/4] c c3 [Ad]3 [Ad] | %24
[M:19/16] [^Ge][Ge]/-[Ge]/-[Ge]/-[Ge]/-[Ge]/-[Ge]/-[Ge]/-[Ge]/-[Ge]/-[Ge]/-[Ge]/-[Ge]-<[Ge][Ad]/[Ad]/ | %25
[M:4/4] c3 c c B3 |[M:3/4] [Ec]6 |] %27
V:2
 z4 z2 [C,C]2 | [C,G,] [C,G,]3 [G,,G,]3 [G,,F,] | [C,F,G,] [C,E,G,]3- [C,E,G,]2 [E,G,]2 | %3
 [F,C] [F,C]3 [F,A,C]3 [F,C] | [C,E,C]6 [C,C]2 | [F,C] [F,C]3 [F,D]3 [F,D] | %6
 [E,C] [E,C]3- [E,C]2 [E,C]2 | [D,A,]3 [D,C] [D,B,]2 [D,A,]2 | [G,B,]6 [G,B,]2 | %9
 [C,G,]3 [C,G,] [G,,G,]3 [G,,F,] | [C,F,G,] [C,E,G,]3- [C,E,G,]2 [E,G,]2 | %11
 [F,C]3 [F,C] [F,A,C]3 [F,C] | [C,E,C]6 [C,C]2 | [A,CE]3 [A,CE] [G,B,G]3 [G,B,G] | %14
 [C,C] [C,G,]3- [C,G,]2 [E,C]2 | [F,A,] [D,A,]3 [G,E]3 [G,,G,] |[M:3/4] [C,G,]6 |[M:1/4] [C,C]2 | %18
[M:4/4][K:treble] [G,B,F] [G,B,F]3 [G,A,F]3 [G,B,F] | [C,C] [C,G,]3- [C,G,]3 [C,C]/[C,C]/ | %20
 [F,C]3 [F,C] [F,C]3 [F,C] |[M:3/4] [C,C]6 |[M:1/4] [CE]2 |[M:4/4] [A,CE] [A,CE]3 [F,A,]3 [F,A,] | %24
[M:19/16] [E,B,][E,B,]/-[E,B,]/-[E,B,]/-[E,B,]/-[E,B,]/-[E,B,]/-[E,B,]/-[E,B,]/-[E,B,]/-[E,B,]/-[E,B,]/-[E,B,]-<[E,B,][K:treble][F,F]/[F,F]/ | %25
[M:4/4] [G,EG]3 [G,_E^F] [G,D=F] [G,DF]3 |[M:3/4][K:bass] [C,C]6 |] %27

